apps/web/src/media/onboarding/slide3.svg

<svg width="302" height="229" viewBox="0 0 302 229" fill="none" xmlns="http://www.w3.org/2000/svg">
<circle cx="158.298" cy="107.233" r="73.7556" fill="#FBB76C" stroke="#FB8500" stroke-width="5.67956"/>
<path d="M216.003 88.4769C181.018 39.3184 133.883 57.3153 114.689 72.4586L112.763 62.7496C170.728 26.5693 205.742 64.826 216.003 88.4769Z" fill="white"/>
<path d="M103.586 39.3919L129.118 0L134.954 10.2127C232.412 -17.2157 261.154 54.711 263.342 94.1029L243.646 88.9966C230.807 14.8814 171.184 17.2644 142.978 27.7202L150.273 42.3098L103.586 39.3919Z" fill="#219EBC"/>
<path d="M200.251 189.613L169.283 224.892L164.987 213.941C64.5839 226.965 46.5631 151.634 50.1031 112.34L68.8518 120.246C70.8207 195.439 130.16 201.717 159.584 195.456L154.479 179.964L200.251 189.613Z" fill="#219EBC"/>
<circle cx="59.0879" cy="79.5128" r="56.7214" fill="#CBE3EE" stroke="#219EBC" stroke-width="4.73297"/>
<path d="M72.8774 79.2089L72.8847 79.2047L72.8918 79.2003C73.489 78.8268 73.918 78.236 74.0883 77.5524C74.2586 76.8688 74.1569 76.1458 73.8047 75.5357C73.4525 74.9257 72.8772 74.4761 72.2 74.2818C71.5229 74.0875 70.7968 74.1636 70.1746 74.4941L70.1672 74.498L70.16 74.5022L54.1786 83.729L50.2446 76.915L50.2404 76.9078L50.236 76.9007C49.8624 76.3034 49.2716 75.8744 48.5881 75.7041C47.9045 75.5339 47.1815 75.6355 46.5714 75.9878C45.9613 76.34 45.5118 76.9153 45.3174 77.5924C45.1231 78.2696 45.1992 78.9957 45.5297 79.6179L45.5337 79.6252L45.5378 79.6325L50.8306 88.7998L50.8308 88.8001C51.1914 89.4238 51.7849 89.8789 52.4808 90.0654C53.1768 90.2519 53.9183 90.1545 54.5425 89.7946L54.5427 89.7945L72.8774 79.2089Z" fill="#219EBC" stroke="#83BEDA" stroke-width="0.946594"/>
<path d="M50.3203 108.914L50.5962 108.53C37.3399 99.0144 31.0801 85.0288 35.2518 69.4598L39.145 54.9302C39.1702 54.836 39.2425 54.7635 39.3383 54.7382C44.6036 56.1936 48.7082 56.9187 52.7133 56.7413C56.7192 56.5638 60.59 55.4852 65.3948 53.3876C65.4065 53.3898 65.4181 53.3928 65.4295 53.3966C68.1637 57.276 70.8618 59.9333 74.2738 62.0671C77.687 64.2017 81.7946 65.7996 87.3157 67.5881C87.3463 67.6164 87.3702 67.6515 87.3854 67.6908C87.4062 67.7447 87.4096 67.8037 87.395 67.8596C87.3949 67.8599 87.3948 67.8601 87.3948 67.8604L83.502 82.3884C79.3296 97.96 66.9168 106.939 50.6792 108.552C50.6493 108.554 50.6195 108.546 50.595 108.529L50.3203 108.914ZM50.3203 108.914C50.4377 108.998 50.5815 109.036 50.7251 109.023L65.3047 52.9104C55.6653 57.1355 49.9555 57.1914 39.3718 54.2564C39.0447 54.2741 38.7715 54.4954 38.6878 54.8077L34.7946 69.3373C30.5636 85.1278 36.932 99.3041 50.3203 108.914ZM68.5539 48.957L68.5093 48.9048L68.4517 48.8674C67.4412 48.2118 66.2492 47.8924 65.0462 47.9549L64.9753 47.9586L64.9086 47.9829C59.6868 49.887 55.6524 50.9784 51.7455 51.2194C47.8461 51.46 44.0422 50.8553 39.2839 49.3202L39.201 49.2935L39.114 49.298C37.9091 49.3606 36.7549 49.8031 35.8169 50.562C34.8789 51.3209 34.2053 52.3573 33.8927 53.5227L33.8926 53.5228L29.9994 68.0524C25.1432 86.1762 32.6567 102.346 47.4264 112.949L47.4269 112.95C48.5241 113.735 49.8704 114.095 51.2131 113.964L51.2139 113.964C69.3043 112.162 83.8981 101.92 88.7544 83.7957L92.6476 69.2662C93.289 66.8723 92.3105 64.3427 90.2383 62.9968L90.169 62.9518L90.0885 62.9329C85.7409 61.9136 82.4074 60.8019 79.1443 58.768C75.8769 56.7312 72.6518 53.7519 68.5539 48.957Z" fill="#219EBC" stroke="#83BEDA" stroke-width="0.946594"/>
<path fill-rule="evenodd" clip-rule="evenodd" d="M130.12 98.1699C130.121 95.3305 130.857 92.5394 132.257 90.0675C133.656 87.5957 135.672 85.527 138.109 84.0622C140.546 82.5975 143.321 81.7864 146.164 81.7076C149.007 81.6289 151.823 82.2852 154.337 83.6129C156.852 84.9405 158.98 86.8945 160.515 89.285C162.049 91.6756 162.939 94.4217 163.097 97.2567C163.256 100.092 162.677 102.919 161.418 105.466C160.159 108.012 158.261 110.189 155.91 111.788C160.973 113.641 165.365 116.965 168.519 121.331C171.674 125.697 173.448 130.905 173.612 136.286C173.621 136.581 173.571 136.875 173.466 137.151C173.362 137.427 173.203 137.679 173.001 137.894C172.591 138.328 172.026 138.582 171.429 138.6C170.832 138.618 170.253 138.398 169.818 137.989C169.384 137.581 169.129 137.017 169.111 136.421C168.933 130.585 166.485 125.048 162.286 120.983C158.088 116.919 152.469 114.645 146.62 114.645C140.771 114.645 135.152 116.919 130.954 120.983C126.755 125.048 124.307 130.585 124.129 136.421C124.099 137.007 123.84 137.559 123.407 137.957C122.975 138.355 122.404 138.569 121.816 138.551C121.227 138.534 120.67 138.288 120.261 137.865C119.853 137.442 119.627 136.876 119.631 136.289C119.795 130.908 121.568 125.699 124.723 121.332C127.878 116.966 132.269 113.642 137.333 111.788C135.109 110.278 133.289 108.247 132.032 105.873C130.774 103.5 130.118 100.855 130.12 98.1699V98.1699ZM146.622 86.1902C143.439 86.1902 140.386 87.4524 138.136 89.699C135.885 91.9456 134.621 94.9927 134.621 98.1699C134.621 101.347 135.885 104.394 138.136 106.641C140.386 108.887 143.439 110.15 146.622 110.15C149.804 110.15 152.857 108.887 155.108 106.641C157.358 104.394 158.623 101.347 158.623 98.1699C158.623 94.9927 157.358 91.9456 155.108 89.699C152.857 87.4524 149.804 86.1902 146.622 86.1902Z" fill="#219EBC"/>
<path d="M171.614 97.8997C171.183 97.8997 170.763 97.9299 170.349 97.9902C170.06 98.0437 169.763 98.0365 169.477 97.9689C169.191 97.9013 168.92 97.7749 168.682 97.597C168.444 97.4191 168.243 97.1934 168.092 96.9335C167.94 96.6736 167.84 96.3847 167.799 96.0841C167.757 95.7834 167.775 95.4773 167.85 95.1838C167.925 94.8903 168.057 94.6155 168.237 94.3758C168.418 94.1361 168.643 93.9364 168.899 93.7887C169.156 93.6409 169.439 93.5481 169.731 93.5158C172.631 93.0823 175.587 93.6581 178.136 95.1528C180.685 96.6474 182.681 98.976 183.809 101.772C184.938 104.568 185.136 107.673 184.371 110.598C183.606 113.523 181.923 116.102 179.586 117.929C183.021 119.52 185.939 122.105 187.985 125.372C190.032 128.639 191.121 132.449 191.12 136.342C191.12 136.941 190.89 137.517 190.479 137.941C190.069 138.365 189.513 138.603 188.933 138.603C188.353 138.603 187.797 138.365 187.387 137.941C186.977 137.517 186.746 136.941 186.746 136.342C186.746 132.977 185.698 129.703 183.757 127.003C181.816 124.302 179.086 122.321 175.97 121.351L174.413 120.868V115.815L175.609 115.185C177.381 114.257 178.798 112.738 179.633 110.874C180.468 109.01 180.671 106.91 180.209 104.912C179.747 102.914 178.648 101.136 177.089 99.8632C175.529 98.5909 173.601 97.8992 171.614 97.8997Z" fill="#219EBC"/>
<circle cx="242.91" cy="147.355" r="56.7214" fill="#CBE3EE" stroke="#219EBC" stroke-width="4.73297"/>
<path d="M259.608 143.504L259.614 143.498L259.62 143.492C260.168 142.92 260.473 142.157 260.471 141.364C260.468 140.571 260.157 139.81 259.605 139.242C259.052 138.674 258.301 138.342 257.508 138.317C256.716 138.292 255.945 138.575 255.357 139.107L255.351 139.113L255.345 139.119L240.054 153.983L233.688 147.434L233.682 147.428L233.676 147.422C233.104 146.874 232.341 146.569 231.548 146.572C230.755 146.574 229.995 146.885 229.426 147.437C228.858 147.99 228.526 148.741 228.501 149.534C228.476 150.326 228.759 151.097 229.291 151.685L229.297 151.691L229.303 151.697L237.801 160.439L237.801 160.439C238.366 161.02 239.139 161.353 239.95 161.364C240.761 161.376 241.543 161.065 242.125 160.5L242.125 160.5L259.608 143.504Z" fill="#219EBC" stroke="#83BEDA" stroke-width="0.946594"/>
<path d="M246.239 111.058L246.183 111.019L246.118 110.997C244.819 110.555 243.413 110.535 242.102 110.94L242.034 110.961L241.975 111.001C236.68 114.602 232.477 116.965 228.173 118.34C223.876 119.713 219.449 120.112 213.696 119.741L213.609 119.735L213.526 119.761C212.213 120.167 211.062 120.978 210.238 122.078C209.414 123.178 208.959 124.511 208.939 125.885L208.939 125.885L208.695 143.208C208.39 164.78 221.321 180.689 240.784 188.35L240.784 188.35C242.215 188.911 243.802 188.933 245.248 188.413L245.249 188.413C264.916 181.302 278.295 165.768 278.6 144.195L278.845 126.873C278.885 124.05 277.098 121.529 274.433 120.622L274.355 120.595L274.272 120.597C269.127 120.686 265.082 120.386 260.853 119.033C256.62 117.678 252.171 115.257 246.239 111.058ZM230.77 124.095C235.187 122.768 239.201 120.472 243.976 116.769C244.009 116.765 244.042 116.765 244.075 116.77C248.224 120.333 251.983 122.537 256.39 123.955C260.799 125.373 265.833 125.997 272.509 126.435C272.567 126.463 272.617 126.506 272.655 126.559C272.702 126.626 272.727 126.706 272.726 126.788L272.482 144.109C272.219 162.708 260.871 176.262 243.173 182.655C243.124 182.673 243.07 182.672 243.022 182.653C225.511 175.762 214.55 161.89 214.813 143.294L215.058 125.972C215.06 125.826 215.142 125.696 215.274 125.631C221.571 125.771 226.355 125.422 230.77 124.095Z" fill="#219EBC" stroke="#83BEDA" stroke-width="0.946594"/>
</svg>

<svg width="302" height="229" viewBox="0 0 302 229" fill="none" xmlns="http://www.w3.org/2000/svg"><circle cx="158.298" cy="107.233" r="73.756" fill="#FBB76C" stroke="#FB8500" stroke-width="5.68"/><path d="M216.003 88.477c-34.985-49.159-82.12-31.162-101.314-16.018l-1.926-9.71c57.965-36.18 92.979 2.077 103.24 25.728Z" fill="#fff"/><path d="M103.586 39.392 129.118 0l5.836 10.213c97.458-27.429 126.2 44.498 128.388 83.89l-19.696-5.106C230.807 14.88 171.184 17.264 142.978 27.72l7.295 14.59-46.687-2.918Zm96.665 150.221-30.968 35.279-4.296-10.951C64.584 226.965 46.563 151.634 50.103 112.34l18.749 7.906c1.969 75.193 61.308 81.471 90.732 75.21l-5.105-15.492 45.772 9.649Z" fill="#219EBC"/><circle cx="59.088" cy="79.513" r="56.721" fill="#CBE3EE" stroke="#219EBC" stroke-width="4.733"/><path d="m72.877 79.209.008-.004.007-.005a2.719 2.719 0 0 0-2.717-4.706l-.008.004-.007.004-15.981 9.227-3.934-6.814-.005-.007-.004-.007a2.72 2.72 0 0 0-4.706 2.717l.004.007.004.007L50.83 88.8a2.719 2.719 0 0 0 3.711.995l18.335-10.586Z" fill="#219EBC" stroke="#83BEDA" stroke-width=".947"/><path d="m50.32 108.914.276-.384C37.34 99.014 31.08 85.029 35.252 69.46l3.893-14.53a.27.27 0 0 1 .193-.192c5.266 1.456 9.37 2.18 13.375 2.003 4.006-.177 7.877-1.256 12.682-3.353a.264.264 0 0 1 .035.009c2.734 3.879 5.432 6.536 8.844 8.67 3.413 2.135 7.52 3.733 13.042 5.521a.275.275 0 0 1 .079.272l-3.893 14.528C79.33 97.96 66.917 106.94 50.679 108.552a.132.132 0 0 1-.084-.023l-.275.385Zm0 0a.602.602 0 0 0 .405.109l14.58-56.113c-9.64 4.226-15.35 4.281-25.933 1.346a.745.745 0 0 0-.684.552l-3.893 14.53c-4.231 15.79 2.137 29.966 15.525 39.576Zm18.234-59.957-.045-.052-.057-.038a5.713 5.713 0 0 0-3.406-.912l-.07.004-.067.024c-5.222 1.904-9.257 2.995-13.164 3.236-3.899.241-7.703-.364-12.461-1.899l-.083-.026-.087.004a5.713 5.713 0 0 0-5.221 4.225l-3.894 14.53c-4.856 18.123 2.658 34.293 17.427 44.896v.001a5.578 5.578 0 0 0 3.787 1.014c18.091-1.802 32.685-12.044 37.541-30.168l3.894-14.53a5.715 5.715 0 0 0-2.41-6.27l-.069-.044-.08-.02c-4.348-1.018-7.682-2.13-10.945-4.164-3.267-2.037-6.492-5.016-10.59-9.811Z" fill="#219EBC" stroke="#83BEDA" stroke-width=".947"/><path fill-rule="evenodd" clip-rule="evenodd" d="M130.12 98.17a16.477 16.477 0 0 1 7.989-14.108 16.527 16.527 0 0 1 16.228-.45 16.457 16.457 0 0 1 7.081 21.853 16.484 16.484 0 0 1-5.508 6.323 27.004 27.004 0 0 1 12.609 9.543 26.933 26.933 0 0 1 5.093 14.955 2.241 2.241 0 0 1-.611 1.608 2.256 2.256 0 0 1-3.183.095 2.246 2.246 0 0 1-.707-1.568 22.439 22.439 0 0 0-6.825-15.438 22.525 22.525 0 0 0-15.666-6.338 22.525 22.525 0 0 0-15.666 6.338 22.439 22.439 0 0 0-6.825 15.438 2.247 2.247 0 0 1-2.313 2.13 2.251 2.251 0 0 1-2.185-2.262 26.94 26.94 0 0 1 5.092-14.957 27.015 27.015 0 0 1 12.61-9.544 16.46 16.46 0 0 1-7.213-13.618Zm16.502-11.98a12.01 12.01 0 0 0-8.486 3.509 11.967 11.967 0 0 0 0 16.942 12.013 12.013 0 0 0 16.972 0 11.973 11.973 0 0 0 3.515-8.471c0-3.177-1.265-6.224-3.515-8.471a12.014 12.014 0 0 0-8.486-3.509Z" fill="#219EBC"/><path d="M171.614 97.9c-.431 0-.851.03-1.265.09a2.116 2.116 0 0 1-.872-.021 2.158 2.158 0 0 1-.795-.372 2.221 2.221 0 0 1-.59-.663 2.334 2.334 0 0 1 .145-2.558c.181-.24.406-.44.662-.587.257-.148.54-.24.832-.273a12.84 12.84 0 0 1 8.405 1.637c2.549 1.494 4.545 3.823 5.673 6.619a14.09 14.09 0 0 1 .562 8.826c-.765 2.925-2.448 5.504-4.785 7.331 3.435 1.591 6.353 4.176 8.399 7.443a20.666 20.666 0 0 1 3.135 10.97c0 .599-.23 1.175-.641 1.599a2.15 2.15 0 0 1-1.546.662 2.15 2.15 0 0 1-1.546-.662c-.41-.424-.641-1-.641-1.599 0-3.365-1.048-6.639-2.989-9.339-1.941-2.701-4.671-4.682-7.787-5.652l-1.557-.483v-5.053l1.196-.63a9.006 9.006 0 0 0 4.024-4.311 9.416 9.416 0 0 0 .576-5.962 9.18 9.18 0 0 0-3.12-5.049 8.653 8.653 0 0 0-5.475-1.963Z" fill="#219EBC"/><circle cx="242.91" cy="147.355" r="56.721" fill="#CBE3EE" stroke="#219EBC" stroke-width="4.733"/><path d="m259.608 143.504.006-.006.006-.006a3.062 3.062 0 0 0-2.112-5.175 3.062 3.062 0 0 0-2.151.79l-.006.006-.006.006-15.291 14.864-6.366-6.549-.006-.006-.006-.006a3.06 3.06 0 0 0-4.385 4.263l.006.006.006.006 8.498 8.742a3.057 3.057 0 0 0 4.324.061l17.483-16.996Z" fill="#219EBC" stroke="#83BEDA" stroke-width=".947"/><path d="m246.239 111.058-.056-.039-.065-.022a6.507 6.507 0 0 0-4.016-.057l-.068.021-.059.04c-5.295 3.601-9.498 5.964-13.802 7.339-4.297 1.373-8.724 1.772-14.477 1.401l-.087-.006-.083.026a6.512 6.512 0 0 0-4.587 6.124l-.244 17.323c-.305 21.572 12.626 37.481 32.089 45.142a6.348 6.348 0 0 0 4.464.063h.001c19.667-7.111 33.046-22.645 33.351-44.218l.245-17.322a6.508 6.508 0 0 0-4.412-6.251l-.078-.027-.083.002c-5.145.089-9.19-.211-13.419-1.564-4.233-1.355-8.682-3.776-14.614-7.975Zm-15.469 13.037c4.417-1.327 8.431-3.623 13.206-7.326a.365.365 0 0 1 .099.001c4.149 3.563 7.908 5.767 12.315 7.185 4.409 1.418 9.443 2.042 16.119 2.48a.388.388 0 0 1 .217.353l-.244 17.321c-.263 18.599-11.611 32.153-29.309 38.546a.212.212 0 0 1-.151-.002c-17.511-6.891-28.472-20.763-28.209-39.359l.245-17.322a.383.383 0 0 1 .216-.341c6.297.14 11.081-.209 15.496-1.536Z" fill="#219EBC" stroke="#83BEDA" stroke-width=".947"/></svg>
